X:4
T:Coucou
Z:Transcrit et/ou corrigé par Michel BELLON - 2007-04-06
Z:Pour toute observation mailto:galouvielle@free.fr
M:2/4
L:1/8
Q:1/4=120
K:F
P:Intro
Z4 | z2 zA [P:A] |: F2CA | F2 CA |
w:Cou-cou Ah cou-cou Ah cou-
AB/A/ GA/G/ | F2 CA | F2 CA | F2 CA |
w:cou je te vois tu me vois Ah cou-cou Ah cou-cou Ah cou-
AB/A/ GA/G/ | F2 z2 [P:B] || Ac cA | GB BG |
w:cou je te vois tu me vois Tra-la la la la la la la
FA FA | EG G2 | Ac cA |
w:la la la la la la la  Tra-la la la
GB BG | FA AF | E2G2 | F2 zA :|
w:la la la la Ah qu'il est drôl' ce jeu là Cou-

%%footer $D   Galouvielle-MBe 2007 \nDivers (--)
